Assets/google-play-badge-logo-svgrepo-com.svg

<svg width="135" height="40" viewBox="0 0 135 40" fill="none" xmlns="http://www.w3.org/2000/svg">
<rect width="135" height="40" rx="5" fill="#0C0D10"/>
<path d="M68.136 21.7511C65.784 21.7511 63.867 23.5401 63.867 26.0041C63.867 28.4531 65.784 30.2571 68.136 30.2571C70.489 30.2571 72.406 28.4531 72.406 26.0041C72.405 23.5401 70.488 21.7511 68.136 21.7511ZM68.136 28.5831C66.847 28.5831 65.736 27.5201 65.736 26.0051C65.736 24.4741 66.848 23.4271 68.136 23.4271C69.425 23.4271 70.536 24.4741 70.536 26.0051C70.536 27.5191 69.425 28.5831 68.136 28.5831ZM58.822 21.7511C56.47 21.7511 54.553 23.5401 54.553 26.0041C54.553 28.4531 56.47 30.2571 58.822 30.2571C61.175 30.2571 63.092 28.4531 63.092 26.0041C63.092 23.5401 61.175 21.7511 58.822 21.7511ZM58.822 28.5831C57.533 28.5831 56.422 27.5201 56.422 26.0051C56.422 24.4741 57.534 23.4271 58.822 23.4271C60.111 23.4271 61.222 24.4741 61.222 26.0051C61.223 27.5191 60.111 28.5831 58.822 28.5831ZM47.744 23.0571V24.8611H52.062C51.933 25.8761 51.595 26.6171 51.079 27.1321C50.451 27.7601 49.468 28.4531 47.744 28.4531C45.086 28.4531 43.008 26.3101 43.008 23.6521C43.008 20.9941 45.086 18.8511 47.744 18.8511C49.178 18.8511 50.225 19.4151 50.998 20.1401L52.271 18.8671C51.191 17.8361 49.758 17.0471 47.744 17.0471C44.103 17.0471 41.042 20.0111 41.042 23.6521C41.042 27.2931 44.103 30.2571 47.744 30.2571C49.709 30.2571 51.192 29.6121 52.351 28.4041C53.543 27.2121 53.914 25.5361 53.914 24.1831C53.914 23.7651 53.882 23.3781 53.817 23.0561H47.744V23.0571ZM93.052 24.4581C92.698 23.5081 91.618 21.7511 89.411 21.7511C87.22 21.7511 85.399 23.4751 85.399 26.0041C85.399 28.3881 87.204 30.2571 89.62 30.2571C91.569 30.2571 92.697 29.0651 93.165 28.3721L91.715 27.4051C91.232 28.1141 90.571 28.5811 89.62 28.5811C88.67 28.5811 87.993 28.1461 87.558 27.2921L93.245 24.9401L93.052 24.4581ZM87.252 25.8761C87.204 24.2321 88.525 23.3951 89.476 23.3951C90.217 23.3951 90.845 23.7661 91.055 24.2971L87.252 25.8761ZM82.629 30.0001H84.497V17.4991H82.629V30.0001ZM79.567 22.7021H79.503C79.084 22.2021 78.278 21.7511 77.264 21.7511C75.137 21.7511 73.188 23.6201 73.188 26.0211C73.188 28.4051 75.137 30.2581 77.264 30.2581C78.279 30.2581 79.084 29.8071 79.503 29.2921H79.567V29.9041C79.567 31.5311 78.697 32.4011 77.296 32.4011C76.152 32.4011 75.443 31.5801 75.153 30.8871L73.526 31.5641C73.993 32.6911 75.233 34.0771 77.296 34.0771C79.487 34.0771 81.34 32.7881 81.34 29.6461V22.0101H79.568V22.7021H79.567ZM77.425 28.5831C76.136 28.5831 75.057 27.5031 75.057 26.0211C75.057 24.5221 76.136 23.4271 77.425 23.4271C78.697 23.4271 79.696 24.5221 79.696 26.0211C79.696 27.5031 78.697 28.5831 77.425 28.5831ZM101.806 17.4991H97.335V30.0001H99.2V25.2641H101.805C103.873 25.2641 105.907 23.7671 105.907 21.3821C105.907 18.9971 103.874 17.4991 101.806 17.4991ZM101.854 23.5241H99.2V19.2391H101.854C103.249 19.2391 104.041 20.3941 104.041 21.3821C104.041 22.3501 103.249 23.5241 101.854 23.5241ZM113.386 21.7291C112.035 21.7291 110.636 22.3241 110.057 23.6431L111.713 24.3341C112.067 23.6431 112.727 23.4171 113.418 23.4171C114.383 23.4171 115.364 23.9961 115.38 25.0251V25.1541C115.042 24.9611 114.318 24.6721 113.434 24.6721C111.649 24.6721 109.831 25.6531 109.831 27.4861C109.831 29.1591 111.295 30.2361 112.935 30.2361C114.189 30.2361 114.881 29.6731 115.315 29.0131H115.379V29.9781H117.181V25.1851C117.182 22.9671 115.524 21.7291 113.386 21.7291ZM113.16 28.5801C112.55 28.5801 111.697 28.2741 111.697 27.5181C111.697 26.5531 112.759 26.1831 113.676 26.1831C114.495 26.1831 114.882 26.3601 115.38 26.6011C115.235 27.7601 114.238 28.5801 113.16 28.5801ZM123.743 22.0021L121.604 27.4221H121.54L119.32 22.0021H117.31L120.639 29.5771L118.741 33.7911H120.687L125.818 22.0021H123.743ZM106.937 30.0001H108.802V17.4991H106.937V30.0001Z" fill="white"/>
<path d="M47.418 10.2429C47.418 11.0809 47.1701 11.7479 46.673 12.2459C46.109 12.8379 45.3731 13.1339 44.4691 13.1339C43.6031 13.1339 42.8661 12.8339 42.2611 12.2339C41.6551 11.6329 41.3521 10.8889 41.3521 10.0009C41.3521 9.11194 41.6551 8.36794 42.2611 7.76794C42.8661 7.16694 43.6031 6.86694 44.4691 6.86694C44.8991 6.86694 45.3101 6.95094 45.7001 7.11794C46.0911 7.28594 46.404 7.50894 46.6381 7.78794L46.111 8.31594C45.714 7.84094 45.167 7.60394 44.468 7.60394C43.836 7.60394 43.29 7.82594 42.829 8.26994C42.368 8.71394 42.1381 9.29094 42.1381 9.99994C42.1381 10.7089 42.368 11.2859 42.829 11.7299C43.29 12.1739 43.836 12.3959 44.468 12.3959C45.138 12.3959 45.6971 12.1729 46.1441 11.7259C46.4341 11.4349 46.602 11.0299 46.647 10.5109H44.468V9.78994H47.375C47.405 9.94694 47.418 10.0979 47.418 10.2429Z" fill="white"/>
<path d="M52.0281 7.737H49.2961V9.639H51.7601V10.36H49.2961V12.262H52.0281V13H48.5251V7H52.0281V7.737Z" fill="white"/>
<path d="M55.279 13H54.508V7.737H52.832V7H56.955V7.737H55.279V13Z" fill="white"/>
<path d="M59.938 13V7H60.709V13H59.938Z" fill="white"/>
<path d="M64.1281 13H63.3572V7.737H61.6812V7H65.8042V7.737H64.1281V13Z" fill="white"/>
<path d="M73.6089 12.225C73.0189 12.831 72.2859 13.134 71.4089 13.134C70.5319 13.134 69.7989 12.831 69.2099 12.225C68.6199 11.619 68.3259 10.877 68.3259 9.99999C68.3259 9.12299 68.6199 8.38099 69.2099 7.77499C69.7989 7.16899 70.5319 6.86499 71.4089 6.86499C72.2809 6.86499 73.0129 7.16999 73.6049 7.77899C74.1969 8.38799 74.4929 9.12799 74.4929 9.99999C74.4929 10.877 74.1979 11.619 73.6089 12.225ZM69.7789 11.722C70.2229 12.172 70.7659 12.396 71.4089 12.396C72.0519 12.396 72.5959 12.171 73.0389 11.722C73.4829 11.272 73.7059 10.698 73.7059 9.99999C73.7059 9.30199 73.4829 8.72799 73.0389 8.27799C72.5959 7.82799 72.0519 7.60399 71.4089 7.60399C70.7659 7.60399 70.2229 7.82899 69.7789 8.27799C69.3359 8.72799 69.1129 9.30199 69.1129 9.99999C69.1129 10.698 69.3359 11.272 69.7789 11.722Z" fill="white"/>
<path d="M75.5749 13V7H76.513L79.429 11.667H79.4619L79.429 10.511V7H80.1999V13H79.3949L76.344 8.106H76.3109L76.344 9.262V13H75.5749Z" fill="white"/>
<path d="M47.418 10.2429C47.418 11.0809 47.1701 11.7479 46.673 12.2459C46.109 12.8379 45.3731 13.1339 44.4691 13.1339C43.6031 13.1339 42.8661 12.8339 42.2611 12.2339C41.6551 11.6329 41.3521 10.8889 41.3521 10.0009C41.3521 9.11194 41.6551 8.36794 42.2611 7.76794C42.8661 7.16694 43.6031 6.86694 44.4691 6.86694C44.8991 6.86694 45.3101 6.95094 45.7001 7.11794C46.0911 7.28594 46.404 7.50894 46.6381 7.78794L46.111 8.31594C45.714 7.84094 45.167 7.60394 44.468 7.60394C43.836 7.60394 43.29 7.82594 42.829 8.26994C42.368 8.71394 42.1381 9.29094 42.1381 9.99994C42.1381 10.7089 42.368 11.2859 42.829 11.7299C43.29 12.1739 43.836 12.3959 44.468 12.3959C45.138 12.3959 45.6971 12.1729 46.1441 11.7259C46.4341 11.4349 46.602 11.0299 46.647 10.5109H44.468V9.78994H47.375C47.405 9.94694 47.418 10.0979 47.418 10.2429Z" stroke="white" stroke-width="0.2" stroke-miterlimit="10"/>
<path d="M52.0281 7.737H49.2961V9.639H51.7601V10.36H49.2961V12.262H52.0281V13H48.5251V7H52.0281V7.737Z" stroke="white" stroke-width="0.2" stroke-miterlimit="10"/>
<path d="M55.279 13H54.508V7.737H52.832V7H56.955V7.737H55.279V13Z" stroke="white" stroke-width="0.2" stroke-miterlimit="10"/>
<path d="M59.938 13V7H60.709V13H59.938Z" stroke="white" stroke-width="0.2" stroke-miterlimit="10"/>
<path d="M64.1281 13H63.3572V7.737H61.6812V7H65.8042V7.737H64.1281V13Z" stroke="white" stroke-width="0.2" stroke-miterlimit="10"/>
<path d="M73.6089 12.225C73.0189 12.831 72.2859 13.134 71.4089 13.134C70.5319 13.134 69.7989 12.831 69.2099 12.225C68.6199 11.619 68.3259 10.877 68.3259 9.99999C68.3259 9.12299 68.6199 8.38099 69.2099 7.77499C69.7989 7.16899 70.5319 6.86499 71.4089 6.86499C72.2809 6.86499 73.0129 7.16999 73.6049 7.77899C74.1969 8.38799 74.4929 9.12799 74.4929 9.99999C74.4929 10.877 74.1979 11.619 73.6089 12.225ZM69.7789 11.722C70.2229 12.172 70.7659 12.396 71.4089 12.396C72.0519 12.396 72.5959 12.171 73.0389 11.722C73.4829 11.272 73.7059 10.698 73.7059 9.99999C73.7059 9.30199 73.4829 8.72799 73.0389 8.27799C72.5959 7.82799 72.0519 7.60399 71.4089 7.60399C70.7659 7.60399 70.2229 7.82899 69.7789 8.27799C69.3359 8.72799 69.1129 9.30199 69.1129 9.99999C69.1129 10.698 69.3359 11.272 69.7789 11.722Z" stroke="white" stroke-width="0.2" stroke-miterlimit="10"/>
<path d="M75.5749 13V7H76.513L79.429 11.667H79.4619L79.429 10.511V7H80.1999V13H79.3949L76.344 8.106H76.3109L76.344 9.262V13H75.5749Z" stroke="white" stroke-width="0.2" stroke-miterlimit="10"/>
<g filter="url(#filter0_ii_68_119)">
<path d="M10.4359 7.53784C10.1449 7.84584 9.9729 8.32384 9.9729 8.94284V31.0588C9.9729 31.6788 10.1449 32.1558 10.4359 32.4638L10.5099 32.5358L22.8989 20.1468V20.0008V19.8548L10.5099 7.46484L10.4359 7.53784Z" fill="url(#paint0_linear_68_119)"/>
<path d="M27.0279 24.2779L22.8989 20.1469V20.0009V19.8549L27.0289 15.7249L27.1219 15.7779L32.0149 18.5579C33.4119 19.3519 33.4119 20.6509 32.0149 21.4459L27.1219 24.2259L27.0279 24.2779Z" fill="url(#paint1_linear_68_119)"/>
<g filter="url(#filter1_i_68_119)">
<path d="M27.1218 24.225L22.8978 20.001L10.4358 32.464C10.8958 32.952 11.6568 33.012 12.5138 32.526L27.1218 24.225Z" fill="url(#paint2_linear_68_119)"/>
</g>
<path d="M27.1218 15.7769L12.5138 7.47694C11.6568 6.98994 10.8958 7.05094 10.4358 7.53894L22.8988 20.0019L27.1218 15.7769Z" fill="url(#paint3_linear_68_119)"/>
</g>
<defs>
<filter id="filter0_ii_68_119" x="9.9729" y="7.14087" width="23.0898" height="25.7207" filterUnits="userSpaceOnUse" color-interpolation-filters="sRGB">
<feFlood flood-opacity="0" result="BackgroundImageFix"/>
<feBlend mode="normal" in="SourceGraphic" in2="BackgroundImageFix" result="shape"/>
<feColorMatrix in="SourceAlpha" type="matrix" values="0 0 0 0 0 0 0 0 0 0 0 0 0 0 0 0 0 0 127 0" result="hardAlpha"/>
<feOffset dy="-0.15"/>
<feComposite in2="hardAlpha" operator="arithmetic" k2="-1" k3="1"/>
<feColorMatrix type="matrix" values="0 0 0 0 0 0 0 0 0 0 0 0 0 0 0 0 0 0 0.12 0"/>
<feBlend mode="normal" in2="shape" result="effect1_innerShadow_68_119"/>
<feColorMatrix in="SourceAlpha" type="matrix" values="0 0 0 0 0 0 0 0 0 0 0 0 0 0 0 0 0 0 127 0" result="hardAlpha"/>
<feOffset dy="0.15"/>
<feComposite in2="hardAlpha" operator="arithmetic" k2="-1" k3="1"/>
<feColorMatrix type="matrix" values="0 0 0 0 1 0 0 0 0 1 0 0 0 0 1 0 0 0 0.25 0"/>
<feBlend mode="normal" in2="effect1_innerShadow_68_119" result="effect2_innerShadow_68_119"/>
</filter>
<filter id="filter1_i_68_119" x="10.4358" y="20.001" width="16.686" height="12.8606" filterUnits="userSpaceOnUse" color-interpolation-filters="sRGB">
<feFlood flood-opacity="0" result="BackgroundImageFix"/>
<feBlend mode="normal" in="SourceGraphic" in2="BackgroundImageFix" result="shape"/>
<feColorMatrix in="SourceAlpha" type="matrix" values="0 0 0 0 0 0 0 0 0 0 0 0 0 0 0 0 0 0 127 0" result="hardAlpha"/>
<feOffset dy="-0.15"/>
<feComposite in2="hardAlpha" operator="arithmetic" k2="-1" k3="1"/>
<feColorMatrix type="matrix" values="0 0 0 0 0 0 0 0 0 0 0 0 0 0 0 0 0 0 0.08 0"/>
<feBlend mode="normal" in2="shape" result="effect1_innerShadow_68_119"/>
</filter>
<linearGradient id="paint0_linear_68_119" x1="21.8007" y1="8.70884" x2="5.0187" y2="25.4908" gradientUnits="userSpaceOnUse">
<stop stop-color="#00A0FF"/>
<stop offset="0.0066" stop-color="#00A1FF"/>
<stop offset="0.2601" stop-color="#00BEFF"/>
<stop offset="0.5122" stop-color="#00D2FF"/>
<stop offset="0.7604" stop-color="#00DFFF"/>
<stop offset="1" stop-color="#00E3FF"/>
</linearGradient>
<linearGradient id="paint1_linear_68_119" x1="33.8334" y1="20.0009" x2="9.63753" y2="20.0009" gradientUnits="userSpaceOnUse">
<stop stop-color="#FFE000"/>
<stop offset="0.4087" stop-color="#FFBD00"/>
<stop offset="0.7754" stop-color="#FFA500"/>
<stop offset="1" stop-color="#FF9C00"/>
</linearGradient>
<linearGradient id="paint2_linear_68_119" x1="24.8279" y1="22.2949" x2="2.06939" y2="45.0534" gradientUnits="userSpaceOnUse">
<stop stop-color="#FF3A44"/>
<stop offset="1" stop-color="#C31162"/>
</linearGradient>
<linearGradient id="paint3_linear_68_119" x1="7.29719" y1="0.176745" x2="17.4595" y2="10.339" gradientUnits="userSpaceOnUse">
<stop stop-color="#32A071"/>
<stop offset="0.0685" stop-color="#2DA771"/>
<stop offset="0.4762" stop-color="#15CF74"/>
<stop offset="0.8009" stop-color="#06E775"/>
<stop offset="1" stop-color="#00F076"/>
</linearGradient>
</defs>
</svg>

<svg width="135px" height="135px" viewBox="0 -47.5 135 135" id="Layer_1" xmlns="http://www.w3.org/2000/svg"><style>.st0{fill:#a6a6a6}.st1{stroke:#fff;stroke-width:.2;stroke-miterlimit:10}.st1,.st2{fill:#fff}.st3{fill:url(#SVGID_1_)}.st4{fill:url(#SVGID_2_)}.st5{fill:url(#SVGID_3_)}.st6{fill:url(#SVGID_4_)}.st7,.st8,.st9{opacity:.2;enable-background:new}.st8,.st9{opacity:.12}.st9{opacity:.25;fill:#fff}</style><path d="M130 40H5c-2.8 0-5-2.2-5-5V5c0-2.8 2.2-5 5-5h125c2.8 0 5 2.2 5 5v30c0 2.8-2.2 5-5 5z"/><path class="st0" d="M130 .8c2.3 0 4.2 1.9 4.2 4.2v30c0 2.3-1.9 4.2-4.2 4.2H5C2.7 39.2.8 37.3.8 35V5C.8 2.7 2.7.8 5 .8h125m0-.8H5C2.2 0 0 2.3 0 5v30c0 2.8 2.2 5 5 5h125c2.8 0 5-2.2 5-5V5c0-2.7-2.2-5-5-5z"/><path class="st1" d="M47.4 10.2c0 .8-.2 1.5-.7 2-.6.6-1.3.9-2.2.9-.9 0-1.6-.3-2.2-.9-.6-.6-.9-1.3-.9-2.2 0-.9.3-1.6.9-2.2.6-.6 1.3-.9 2.2-.9.4 0 .8.1 1.2.3.4.2.7.4.9.7l-.5.5c-.4-.5-.9-.7-1.6-.7-.6 0-1.2.2-1.6.7-.5.4-.7 1-.7 1.7s.2 1.3.7 1.7c.5.4 1 .7 1.6.7.7 0 1.2-.2 1.7-.7.3-.3.5-.7.5-1.2h-2.2v-.8h2.9v.4zM52 7.7h-2.7v1.9h2.5v.7h-2.5v1.9H52v.8h-3.5V7H52v.7zM55.3 13h-.8V7.7h-1.7V7H57v.7h-1.7V13zM59.9 13V7h.8v6h-.8zM64.1 13h-.8V7.7h-1.7V7h4.1v.7H64V13zM73.6 12.2c-.6.6-1.3.9-2.2.9-.9 0-1.6-.3-2.2-.9-.6-.6-.9-1.3-.9-2.2s.3-1.6.9-2.2c.6-.6 1.3-.9 2.2-.9.9 0 1.6.3 2.2.9.6.6.9 1.3.9 2.2 0 .9-.3 1.6-.9 2.2zm-3.8-.5c.4.4 1 .7 1.6.7.6 0 1.2-.2 1.6-.7.4-.4.7-1 .7-1.7s-.2-1.3-.7-1.7c-.4-.4-1-.7-1.6-.7-.6 0-1.2.2-1.6.7-.4.4-.7 1-.7 1.7s.2 1.3.7 1.7zM75.6 13V7h.9l2.9 4.7V7h.8v6h-.8l-3.1-4.9V13h-.7z"/><path class="st2" d="M68.1 21.8c-2.4 0-4.3 1.8-4.3 4.3 0 2.4 1.9 4.3 4.3 4.3s4.3-1.8 4.3-4.3c0-2.6-1.9-4.3-4.3-4.3zm0 6.8c-1.3 0-2.4-1.1-2.4-2.6s1.1-2.6 2.4-2.6c1.3 0 2.4 1 2.4 2.6 0 1.5-1.1 2.6-2.4 2.6zm-9.3-6.8c-2.4 0-4.3 1.8-4.3 4.3 0 2.4 1.9 4.3 4.3 4.3s4.3-1.8 4.3-4.3c0-2.6-1.9-4.3-4.3-4.3zm0 6.8c-1.3 0-2.4-1.1-2.4-2.6s1.1-2.6 2.4-2.6c1.3 0 2.4 1 2.4 2.6 0 1.5-1.1 2.6-2.4 2.6zm-11.1-5.5v1.8H52c-.1 1-.5 1.8-1 2.3-.6.6-1.6 1.3-3.3 1.3-2.7 0-4.7-2.1-4.7-4.8s2.1-4.8 4.7-4.8c1.4 0 2.5.6 3.3 1.3l1.3-1.3c-1.1-1-2.5-1.8-4.5-1.8-3.6 0-6.7 3-6.7 6.6 0 3.6 3.1 6.6 6.7 6.6 2 0 3.4-.6 4.6-1.9 1.2-1.2 1.6-2.9 1.6-4.2 0-.4 0-.8-.1-1.1h-6.2zm45.4 1.4c-.4-1-1.4-2.7-3.6-2.7s-4 1.7-4 4.3c0 2.4 1.8 4.3 4.2 4.3 1.9 0 3.1-1.2 3.5-1.9l-1.4-1c-.5.7-1.1 1.2-2.1 1.2s-1.6-.4-2.1-1.3l5.7-2.4-.2-.5zm-5.8 1.4c0-1.6 1.3-2.5 2.2-2.5.7 0 1.4.4 1.6.9l-3.8 1.6zM82.6 30h1.9V17.5h-1.9V30zm-3-7.3c-.5-.5-1.3-1-2.3-1-2.1 0-4.1 1.9-4.1 4.3s1.9 4.2 4.1 4.2c1 0 1.8-.5 2.2-1h.1v.6c0 1.6-.9 2.5-2.3 2.5-1.1 0-1.9-.8-2.1-1.5l-1.6.7c.5 1.1 1.7 2.5 3.8 2.5 2.2 0 4-1.3 4-4.4V22h-1.8v.7zm-2.2 5.9c-1.3 0-2.4-1.1-2.4-2.6s1.1-2.6 2.4-2.6c1.3 0 2.3 1.1 2.3 2.6s-1 2.6-2.3 2.6zm24.4-11.1h-4.5V30h1.9v-4.7h2.6c2.1 0 4.1-1.5 4.1-3.9s-2-3.9-4.1-3.9zm.1 6h-2.7v-4.3h2.7c1.4 0 2.2 1.2 2.2 2.1-.1 1.1-.9 2.2-2.2 2.2zm11.5-1.8c-1.4 0-2.8.6-3.3 1.9l1.7.7c.4-.7 1-.9 1.7-.9 1 0 1.9.6 2 1.6v.1c-.3-.2-1.1-.5-1.9-.5-1.8 0-3.6 1-3.6 2.8 0 1.7 1.5 2.8 3.1 2.8 1.3 0 1.9-.6 2.4-1.2h.1v1h1.8v-4.8c-.2-2.2-1.9-3.5-4-3.5zm-.2 6.9c-.6 0-1.5-.3-1.5-1.1 0-1 1.1-1.3 2-1.3.8 0 1.2.2 1.7.4-.2 1.2-1.2 2-2.2 2zm10.5-6.6l-2.1 5.4h-.1l-2.2-5.4h-2l3.3 7.6-1.9 4.2h1.9l5.1-11.8h-2zm-16.8 8h1.9V17.5h-1.9V30z"/><g><linearGradient id="SVGID_1_" gradientUnits="userSpaceOnUse" x1="21.8" y1="33.29" x2="5.017" y2="16.508" gradientTransform="matrix(1 0 0 -1 0 42)"><stop offset="0" stop-color="#00a0ff"/><stop offset=".007" stop-color="#00a1ff"/><stop offset=".26" stop-color="#00beff"/><stop offset=".512" stop-color="#00d2ff"/><stop offset=".76" stop-color="#00dfff"/><stop offset="1" stop-color="#00e3ff"/></linearGradient><path class="st3" d="M10.4 7.5c-.3.3-.4.8-.4 1.4V31c0 .6.2 1.1.5 1.4l.1.1L23 20.1v-.2L10.4 7.5z"/><linearGradient id="SVGID_2_" gradientUnits="userSpaceOnUse" x1="33.834" y1="21.999" x2="9.637" y2="21.999" gradientTransform="matrix(1 0 0 -1 0 42)"><stop offset="0" stop-color="#ffe000"/><stop offset=".409" stop-color="#ffbd00"/><stop offset=".775" stop-color="orange"/><stop offset="1" stop-color="#ff9c00"/></linearGradient><path class="st4" d="M27 24.3l-4.1-4.1V19.9l4.1-4.1.1.1 4.9 2.8c1.4.8 1.4 2.1 0 2.9l-5 2.7z"/><linearGradient id="SVGID_3_" gradientUnits="userSpaceOnUse" x1="24.827" y1="19.704" x2="2.069" y2="-3.054" gradientTransform="matrix(1 0 0 -1 0 42)"><stop offset="0" stop-color="#ff3a44"/><stop offset="1" stop-color="#c31162"/></linearGradient><path class="st5" d="M27.1 24.2L22.9 20 10.4 32.5c.5.5 1.2.5 2.1.1l14.6-8.4"/><linearGradient id="SVGID_4_" gradientUnits="userSpaceOnUse" x1="7.297" y1="41.824" x2="17.46" y2="31.661" gradientTransform="matrix(1 0 0 -1 0 42)"><stop offset="0" stop-color="#32a071"/><stop offset=".069" stop-color="#2da771"/><stop offset=".476" stop-color="#15cf74"/><stop offset=".801" stop-color="#06e775"/><stop offset="1" stop-color="#00f076"/></linearGradient><path class="st6" d="M27.1 15.8L12.5 7.5c-.9-.5-1.6-.4-2.1.1L22.9 20l4.2-4.2z"/><path class="st7" d="M27 24.1l-14.5 8.2c-.8.5-1.5.4-2 0l-.1.1.1.1c.5.4 1.2.5 2 0L27 24.1z"/><path class="st8" d="M10.4 32.3c-.3-.3-.4-.8-.4-1.4v.1c0 .6.2 1.1.5 1.4v-.1h-.1zM32 21.3l-5 2.8.1.1 4.9-2.8c.7-.4 1-.9 1-1.4 0 .5-.4.9-1 1.3z"/><path class="st9" d="M12.5 7.6L32 18.7c.6.4 1 .8 1 1.3 0-.5-.3-1-1-1.4L12.5 7.5c-1.4-.8-2.5-.2-2.5 1.4V9c0-1.5 1.1-2.2 2.5-1.4z"/></g></svg>
